icon-themes/sifr_svg/cmd/lc_connectorlinecircleend.svg

<svg viewBox="0 0 24 24" xmlns="http://www.w3.org/2000/svg"><path d="m5 1c-2.1972955 0-4 1.8027043-4 4s1.8027045 4 4 4c.7374989 0 1.4222258-.2154387 2.0175781-.5683594l8.5507809 8.5507814c-.35292.595352-.568359 1.280079-.568359 2.017578 0 2.197296 1.802704 4 4 4s4-1.802704 4-4-1.802704-4-4-4c-.737499 0-1.422226.215439-2.017578.568359l-8.5507814-8.5507809c.3529208-.5953523.5683594-1.2800792.5683594-2.0175781 0-2.1972957-1.8027045-4-4-4zm0 2c1.1164148 0 2 .8835841 2 2s-.8835852 2-2 2-2-.8835841-2-2 .8835852-2 2-2z" fill="#555753"/></svg>

<svg xmlns="http://www.w3.org/2000/svg" viewBox="0 0 24 24">
 <path
     style="fill:#555753"
     d="M 5 1 C 2.8027045 1 1 2.8027043 1 5 C 1 7.1972957 2.8027045 9 5 9 C 5.7374989 9 6.4222258 8.7845613 7.0175781 8.4316406 L 15.568359 16.982422 C 15.215439 17.577774 15 18.262501 15 19 C 15 21.197296 16.802704 23 19 23 C 21.197296 23 23 21.197296 23 19 C 23 16.802704 21.197296 15 19 15 C 18.262501 15 17.577774 15.215439 16.982422 15.568359 L 8.4316406 7.0175781 C 8.7845614 6.4222258 9 5.7374989 9 5 C 9 2.8027043 7.1972955 1 5 1 z M 5 3 C 6.1164148 3 7 3.8835841 7 5 C 7 6.1164159 6.1164148 7 5 7 C 3.8835852 7 3 6.1164159 3 5 C 3 3.8835841 3.8835852 3 5 3 z "
     />
 </svg>
